dist/img/svg/product_i_1.svg

<svg width="50" height="50" viewBox="0 0 50 50" fill="none" xmlns="http://www.w3.org/2000/svg">
<path d="M26.2503 28.3333C27.4009 28.3333 28.3337 27.4006 28.3337 26.25C28.3337 25.0994 27.4009 24.1666 26.2503 24.1666C25.0997 24.1666 24.167 25.0994 24.167 26.25C24.167 27.4006 25.0997 28.3333 26.2503 28.3333Z" stroke="#6B3D90" stroke-width="2" stroke-linecap="round" stroke-linejoin="round"/>
<path d="M27.5912 5.83337C32.5409 6.15777 37.2073 8.27149 40.7165 11.7818C48.6496 19.7177 48.6496 32.779 40.7165 40.7148C32.7833 48.6507 19.7263 48.6507 11.7931 40.7148C8.22935 37.1499 6.10609 32.3897 5.83301 27.3564M34.3808 34.3771C38.8697 29.8867 38.8697 22.6065 34.3808 18.1162C29.892 13.6258 22.6142 13.6258 18.1253 18.1162C13.6365 22.6065 13.6365 29.8867 18.1253 34.3771C22.6142 38.8675 29.892 38.8675 34.3808 34.3771ZM32.0903 32.0858C35.3127 28.8623 35.3127 23.6344 32.0903 20.4109C28.8679 17.1873 23.6417 17.1873 20.4193 20.4109C17.1968 23.6344 17.1968 28.8623 20.4193 32.0858C23.6417 35.3093 28.8679 35.3093 32.0903 32.0858Z" stroke="#6C757D" stroke-width="2" stroke-linecap="round" stroke-linejoin="round"/>
<path d="M21.9917 24.4019C22.257 24.6551 22.257 25.0645 21.9917 25.3177C21.7264 25.5708 21.2973 25.5708 21.032 25.3177C20.7667 25.0645 20.7667 24.6551 21.032 24.4019C21.2973 24.1487 21.7264 24.1487 21.9917 24.4019ZM25.8075 21.0232C25.5422 21.2764 25.5422 21.6859 25.8075 21.939C26.0728 22.1922 26.5019 22.1922 26.7672 21.939C27.0325 21.6859 27.0325 21.2764 26.7672 21.0232C26.5019 20.7701 26.0728 20.7701 25.8075 21.0232ZM30.5077 24.3238C30.2424 24.5769 30.2424 24.9864 30.5077 25.2395C30.773 25.4927 31.2021 25.4927 31.4674 25.2395C31.7327 24.9864 31.7327 24.5769 31.4674 24.3238C31.2021 24.0706 30.773 24.0706 30.5077 24.3238ZM28.7684 29.7246C28.5031 29.9778 28.5031 30.3872 28.7684 30.6404C29.0338 30.8935 29.4628 30.8935 29.7281 30.6404C29.9934 30.3872 29.9934 29.9778 29.7281 29.7246C29.4628 29.4714 29.0338 29.4714 28.7684 29.7246ZM22.7745 29.7277C22.5092 29.9809 22.5092 30.3903 22.7745 30.6435C23.0398 30.8967 23.4689 30.8967 23.7342 30.6435C23.9995 30.3903 23.9995 29.9809 23.7342 29.7277C23.4689 29.4746 23.0398 29.4746 22.7745 29.7277Z" fill="#6B3D90"/>
<path d="M6.27264 20.3943C6.56362 20.6852 6.56362 21.1575 6.27264 21.4485C5.98165 21.7394 5.50923 21.7394 5.21824 21.4485C4.92725 21.1575 4.92725 20.6852 5.21824 20.3943C5.50923 20.1034 5.98165 20.1034 6.27264 20.3943ZM20.394 5.21819C20.103 5.50912 20.103 5.98145 20.394 6.27238C20.685 6.5633 21.1574 6.5633 21.4484 6.27238C21.7394 5.98145 21.7394 5.50912 21.4484 5.21819C21.1574 4.92727 20.685 4.92727 20.394 5.21819Z" fill="#6C757D"/>
<path d="M11.4477 13.9583C11.8021 13.5387 12.174 13.1296 12.5635 12.7416C14.4512 10.8443 16.6968 9.34551 19.167 8.33337M7.11436 16.5398C6.51787 17.1393 6.51787 18.1127 7.11436 18.7157C7.71085 19.3188 8.67927 19.3153 9.27927 18.7157C9.87927 18.1162 9.87576 17.1429 9.27927 16.5398C8.68278 15.9368 7.71436 15.9403 7.11436 16.5398Z" stroke="#6C757D" stroke-width="2" stroke-linecap="round" stroke-linejoin="round"/>
<path d="M3.33303 23.1265L3.39794 15.7236L15.8303 3.39782L23.1175 3.33345C23.7017 3.32667 24.1697 3.79422 24.1663 4.37358L24.1253 8.8797L8.74804 24.126L4.38187 24.1666C3.79766 24.1734 3.32961 23.7059 3.33303 23.1265Z" stroke="#6B3D90" stroke-width="2" stroke-linecap="round" stroke-linejoin="round"/>
</svg>

<svg width="50" height="50" viewBox="0 0 50 50" fill="none" xmlns="http://www.w3.org/2000/svg"><path d="M26.25 28.333a2.083 2.083 0 100-4.166 2.083 2.083 0 000 4.166z" stroke="#6B3D90" stroke-width="2" stroke-linecap="round" stroke-linejoin="round"/><path d="M27.591 5.833a20.453 20.453 0 0113.126 5.949c7.933 7.936 7.933 20.997 0 28.933-7.934 7.936-20.99 7.936-28.924 0a20.469 20.469 0 01-5.96-13.359m28.548 7.021c4.489-4.49 4.489-11.77 0-16.26-4.489-4.491-11.767-4.491-16.256 0-4.489 4.49-4.489 11.77 0 16.26 4.49 4.49 11.767 4.49 16.256 0zm-2.29-2.291a8.258 8.258 0 000-11.675 8.251 8.251 0 00-11.672 0 8.258 8.258 0 000 11.675 8.251 8.251 0 0011.671 0z" stroke="#6C757D" stroke-width="2" stroke-linecap="round" stroke-linejoin="round"/><path d="M21.992 24.402a.626.626 0 010 .916.701.701 0 01-.96 0 .626.626 0 010-.916.701.701 0 01.96 0zm3.816-3.379a.626.626 0 000 .916.701.701 0 00.96 0 .626.626 0 000-.916.701.701 0 00-.96 0zm4.7 3.3a.626.626 0 000 .916.701.701 0 00.96 0 .626.626 0 000-.915.701.701 0 00-.96 0zm-1.74 5.402a.626.626 0 000 .915.701.701 0 00.96 0 .626.626 0 000-.915.701.701 0 00-.96 0zm-5.994.003a.626.626 0 000 .915.701.701 0 00.96 0 .626.626 0 000-.915.701.701 0 00-.96 0z" fill="#6B3D90"/><path d="M6.273 20.394a.746.746 0 11-1.055 1.055.746.746 0 011.055-1.055zM20.394 5.218a.746.746 0 101.055 1.054.746.746 0 00-1.055-1.054z" fill="#6C757D"/><path d="M11.448 13.958a20.03 20.03 0 017.72-5.625M7.113 16.54a1.547 1.547 0 000 2.176c.597.603 1.565.6 2.165 0 .6-.6.597-1.573 0-2.176a1.525 1.525 0 00-2.165 0z" stroke="#6C757D" stroke-width="2" stroke-linecap="round" stroke-linejoin="round"/><path d="M3.333 23.127l.065-7.403L15.83 3.398l7.287-.065a1.032 1.032 0 011.05 1.04l-.042 4.507L8.748 24.126l-4.366.04a1.032 1.032 0 01-1.049-1.04z" stroke="#6B3D90" stroke-width="2" stroke-linecap="round" stroke-linejoin="round"/></svg>
